X:1
T:Paddy's In Chicago
M:6/8
K:G
L:1/8
|:b2ab2d|d2ba2g|efgd2e|d2BA2G|A2BG2g|a2ba2g|e2de2a|a2ga3|
g2ab2d|d2ba2g|efgd2e|d2BA2G|A2BG2A|G2ED2E|GABA3|A2BG3:|
|:G2AB2D|D2BA2G|EFGD2E|G2BA2G|E2GBAG|A2GA2B|A2Ge2A|A2GA3|
d2cB2D|D2BA2G|EFGD2E|G2BA2G|A2BG2g|a2ba2g|e2gd2g|g2fg3:|
